X: 1582
T: Petek Petek Bal Gibisin
C: Erol Sayan
O: Turkey
F: http://compmusic.upf.edu/node/140
N: mahur--sarki--duyek--petek_petek--erol_sayan
N: makam= mahur
N: form= sarki
N: usul= duyek = 8/4
M: 8/4
L: 1/16
K: C ^9/8f   
Q: 1/4=264
%%MIDI tuningsystem comma53
d2 g4 f2 g8  | z2 a2 g2 f2 g2 f2 e2 f2  | \
w:  ARANAĞME  |   | 
d6 cB AG FE D4  | d2 f4 g2 a8  | 
w:   |   | 
z2 c'2 b2 a2 g2 f2 e2 f2  | g6 fe dc BA G4  | \
w:   |   | 
d2 g4 f2 g8  | z2 a2 g2 f2 g2 f2 e2 f2  | 
w:  ARANAĞME  |   | 
d6 cB AG FE D4  | d2 f4 g2 a8  | z2 c'2 b2 a2 g2 f2 e2 f2  | \
w:   |   |   | 
g6 d2 e2 f2 g4  | 
w:   | 
z2 c'2 b2 a2 g2 f2 e2 d2  | c2 B2 A2 G2 c8  | \
w:   |   | 
z2 c2 B2 A2 B2 A2 G2 F2  | 
w:   | 
G6 AB cd ef g4  | z2 c'2 b2 a2 g2 f2 e2 d2  | \
w:   |   | 
c2 B2 A2 G2 c8  | 
w:   | 
z2 c2 B2 A2 B2 A2 G2 F2  | G6 D2 E2 F2 G4  | \
w:   |   | 
d2 g4 f2 g8  | z2 a2 g2 f2 g4 e2 f2  | 
w:  Pe tek  pe tek   |  bal  *  *  *  gi bi  | 
d6 cB AG FE D4  | d2 f4 g2 a8  | z2 c'2 b2 a2 g2 f2 e2 f2  | \
w:  sin   SAZ  |  Çi çek  çi çek   |  dal  *  *  *  *  gi bi  | 
g6 fe dc BA G4  | 
w:  sin   SAZ  | 
d2 g4 f2 g8  | z2 a2 g2 f2 g4 e2 f2  | \
w:  Pe tek  pe tek   |  bal  *  *  *  gi bi  | 
d6 cB AG FE D4  | d2 f4 g2 a8  | 
w:  sin   SAZ  |  Çi çek  çi çek   | 
z2 c'2 b2 a2 g2 f2 e2 f2  | g6 d2 ed ef g4  | \
w:  dal  *  *  *  *  gi bi  |  sin   SAZ  | 
.a4 .f4 .g4 .e4  | z2 e4 d2 e4 c2 B2  | 
w:  Fin can da ki   |  fal  *  *  gi bi  | 
c6 B2 B3A G4  | z2 c2 B2 A2 B2 A2 G2 F2  | \
w:  sin   SAZ  |  Be nim  gü zel  pe ri  kı  | 
G2 c2 B2 A2 B2 A2 G2 F2  | 
w:  zım   SAZ  | 
G6 AB cd ef g4  | .a4 .f4 .g4 .e4  | \
w:   |  Fin can da ki   | 
z2 e4 d2 e4 c2 B2  | c6 B2 B3A G4  | 
w:  fal  *  *  gi bi  |  sin   SAZ  | 
z2 c2 B2 A2 B2 A2 G2 F2  | G2 c2 B2 A2 B2 A2 G2 F2  | \
w:  Be nim  gü zel  pe ri  kı  |  zım   SAZ  | 
G6 D2 E2 F2 G4  | 
w:   | 
d2 g4 f2 g8  | z2 a2 g2 f2 g2 f2 e2 f2  | \
w:  ARANAĞME  |   | 
d6 cB AG FE D4  | d2 f4 g2 a8  | 
w:   |   | 
z2 c'2 b2 a2 g2 f2 e2 f2  | g6 fe dc BA G4  | \
w:   |   | 
d2 g4 f2 g8  | z2 a2 g2 f2 g2 f2 e2 f2  | 
w:  ARANAĞME  |   | 
d6 cB AG FE D4  | d2 f4 g2 a8  | z2 c'2 b2 a2 g2 f2 e2 f2  | \
w:   |   |   | 
g6 d2 e2 f2 g4  | 
w:   | 
z2 c'2 b2 a2 g2 f2 e2 d2  | c2 B2 A2 G2 c8  | \
w:   |   | 
z2 c2 B2 A2 B2 A2 G2 F2  | 
w:   | 
G6 AB cd ef g4  | z2 c'2 b2 a2 g2 f2 e2 d2  | \
w:   |   | 
c2 B2 A2 G2 c8  | 
w:   | 
z2 c2 B2 A2 B2 A2 G2 F2  | G6 D2 E2 F2 G4  | \
w:   |   | 
d2 g4 f2 g8  | z2 a2 g2 f2 g4 e2 f2  | 
w:  Pe tek  pe tek   |  bal  *  *  *  gi bi  | 
d6 cB AG FE D4  | d2 f4 g2 a8  | z2 c'2 b2 a2 g2 f2 e2 f2  | \
w:  sin   SAZ  |  Çi çek  çi çek   |  dal  *  *  *  *  gi bi  | 
g6 fe dc BA G4  | 
w:  sin   SAZ  | 
d2 g4 f2 g8  | z2 a2 g2 f2 g4 e2 f2  | \
w:  Pe tek  pe tek   |  bal  *  *  *  gi bi  | 
d6 cB AG FE D4  | d2 f4 g2 a8  | 
w:  sin   SAZ  |  Çi çek  çi çek   | 
z2 c'2 b2 a2 g2 f2 e2 f2  | g6 d2 ed ef g4  | \
w:  dal  *  *  *  *  gi bi  |  sin   SAZ  | 
.a4 .f4 .g4 .e4  | z2 e4 d2 e4 c2 B2  | 
w:  Fin can da ki   |  fal  *  *  gi bi  | 
c6 B2 B3A G4  | z2 c2 B2 A2 B2 A2 G2 F2  | \
w:  sin   SAZ  |  Be nim  gü zel  pe ri  kı  | 
G2 c2 B2 A2 B2 A2 G2 F2  | 
w:  zım   SAZ  | 
G6 AB cd ef g4  | .a4 .f4 .g4 .e4  | \
w:   |  Fin can da ki   | 
z2 e4 d2 e4 c2 B2  | c6 B2 B3A G4  | 
w:  fal  *  *  gi bi  |  sin   SAZ  | 
z2 c2 B2 A2 B2 A2 G2 F2  | G2 c2 B2 A2 B2 A2 G2 F2  | \
w:  Be nim  gü zel  pe ri  kı  |  zım   SAZ  | 
G6 D2 E2 F2 G4  | 
w:   | 
|


